packages/core/src/svgs/chz.svg

<svg width="24" height="24" viewBox="0 0 24 24" fill="none" xmlns="http://www.w3.org/2000/svg">
<g clip-path="url(#clip0_31_8381)">
<path d="M0 0H24V24H0V0Z" fill="#CD0124"/>
<path d="M18.3557 5.57129H6.62567L5.7771 6.11129L11.7514 18.9899L12.42 19.7141L18.3557 5.57129Z" fill="white"/>
<path d="M13.7999 12.583C13.7999 12.433 13.7999 12.3559 13.6714 12.283C13.2128 11.9059 12.6856 11.5287 12.2314 11.1516C12.1852 11.1142 12.1279 11.0931 12.0685 11.0916C12.0091 11.0931 11.9518 11.1142 11.9056 11.1516L10.4614 12.3559C10.3987 12.3938 10.3482 12.4488 10.3156 12.5144C10.2814 12.5787 10.2642 12.6559 10.2642 12.733C10.2642 12.8959 10.2214 13.0544 10.1356 13.1873C10.1025 13.2446 10.0851 13.3097 10.0851 13.3759C10.0851 13.4421 10.1025 13.5071 10.1356 13.5644L12.2314 18.4887L14.0014 13.7144C14.0656 13.5644 14.0656 13.4873 13.9328 13.4144C13.7851 13.164 13.7391 12.8664 13.8042 12.583H13.7999ZM11.5499 10.4873L7.3585 7.34157L7.28564 7.41871C7.3585 7.573 7.3585 7.65014 7.42707 7.80442L8.92279 11.2544C9.06422 11.5587 9.13707 11.8673 9.56136 11.9444C9.68564 11.9573 9.80564 11.9316 9.91707 11.8673L11.5499 10.4873ZM11.9999 9.86585C12.0546 9.90402 12.1197 9.92448 12.1864 9.92448C12.253 9.92448 12.3181 9.90402 12.3728 9.86585C13.7914 8.76871 15.2099 7.753 16.5556 6.65157C16.6285 6.57871 16.7056 6.57871 16.7056 6.49728V6.42871H7.29422C7.37993 6.463 7.45707 6.50585 7.51707 6.57871L11.9999 9.86585ZM12.7456 10.4873L14.4471 11.713C14.5885 11.7901 14.8028 11.713 15.0128 11.713C15.0856 11.713 15.1542 11.563 15.1542 11.4859C15.6514 10.2559 16.1485 8.953 16.6414 7.723C16.6414 7.65014 16.7142 7.573 16.7142 7.49585H16.6414L12.7456 10.4873Z" fill="#CD0124"/>
<path d="M9.12005 13.7271C9.65261 13.7271 10.0843 13.2838 10.0843 12.7371C10.0843 12.1903 9.65261 11.7471 9.12005 11.7471C8.58749 11.7471 8.15576 12.1903 8.15576 12.7371C8.15576 13.2838 8.58749 13.7271 9.12005 13.7271Z" fill="white"/>
<path d="M15.0085 13.7271C15.541 13.7271 15.9728 13.2838 15.9728 12.7371C15.9728 12.1903 15.541 11.7471 15.0085 11.7471C14.4759 11.7471 14.0442 12.1903 14.0442 12.7371C14.0442 13.2838 14.4759 13.7271 15.0085 13.7271Z" fill="white"/>
<path d="M6.21425 7.28592C6.80598 7.28592 7.28568 6.80623 7.28568 6.21449C7.28568 5.62276 6.80598 5.14307 6.21425 5.14307C5.62252 5.14307 5.14282 5.62276 5.14282 6.21449C5.14282 6.80623 5.62252 7.28592 6.21425 7.28592Z" fill="white"/>
<path d="M17.7858 7.28592C18.3775 7.28592 18.8572 6.80623 18.8572 6.21449C18.8572 5.62276 18.3775 5.14307 17.7858 5.14307C17.1941 5.14307 16.7144 5.62276 16.7144 6.21449C16.7144 6.80623 17.1941 7.28592 17.7858 7.28592Z" fill="white"/>
<path d="M12.2143 20.5716C12.806 20.5716 13.2857 20.0919 13.2857 19.5001C13.2857 18.9084 12.806 18.4287 12.2143 18.4287C11.6225 18.4287 11.1428 18.9084 11.1428 19.5001C11.1428 20.0919 11.6225 20.5716 12.2143 20.5716Z" fill="white"/>
</g>
<defs>
<clipPath id="clip0_31_8381">
<rect width="24" height="24" fill="white"/>
</clipPath>
</defs>
</svg>

<svg xmlns="http://www.w3.org/2000/svg" width="24" height="24" fill="none" viewBox="0 0 24 24"><g clip-path="url(#a)"><path fill="#CD0124" d="M0 0h24v24H0z"/><path fill="#fff" d="M18.356 5.571H6.626l-.849.54 5.974 12.879.669.724z"/><path fill="#CD0124" d="M13.8 12.583c0-.15 0-.227-.129-.3-.458-.377-.985-.754-1.44-1.131a.27.27 0 0 0-.162-.06.27.27 0 0 0-.163.06l-1.445 1.204a.4.4 0 0 0-.145.158.5.5 0 0 0-.052.219.84.84 0 0 1-.128.454.38.38 0 0 0 0 .377l2.095 4.925 1.77-4.775c.065-.15.065-.227-.068-.3a1.14 1.14 0 0 1-.129-.831zm-2.25-2.096L7.359 7.342l-.073.077c.073.154.073.231.141.385l1.496 3.45c.141.305.214.613.638.69a.58.58 0 0 0 .356-.077zm.45-.621a.33.33 0 0 0 .373 0c1.418-1.097 2.837-2.113 4.183-3.214.072-.073.15-.073.15-.155V6.43H7.294a.53.53 0 0 1 .223.15zm.746.621 1.701 1.226c.142.077.356 0 .566 0 .073 0 .141-.15.141-.227.497-1.23.994-2.533 1.487-3.763 0-.073.073-.15.073-.227h-.073z"/><path fill="#fff" d="M9.12 13.727a.977.977 0 0 0 .964-.99.977.977 0 0 0-.964-.99.977.977 0 0 0-.964.99c0 .547.431.99.964.99M15.009 13.727a.977.977 0 0 0 .964-.99.977.977 0 0 0-.965-.99.977.977 0 0 0-.964.99c0 .547.432.99.964.99M6.214 7.286a1.071 1.071 0 1 0 0-2.143 1.071 1.071 0 0 0 0 2.143M17.786 7.286a1.071 1.071 0 1 0 0-2.143 1.071 1.071 0 0 0 0 2.143M12.214 20.572a1.071 1.071 0 1 0 0-2.143 1.071 1.071 0 0 0 0 2.143"/></g><defs><clipPath id="a"><path fill="#fff" d="M0 0h24v24H0z"/></clipPath></defs></svg>
